svg/u1f48d.svg

<svg viewBox="0 0 128 128" xmlns="http://www.w3.org/2000/svg">
  <g>
    <path d="M95.27,61.54c2.16,4.51,3.37,9.57,3.37,14.9c0,19.13-15.5,34.63-34.63,34.63 s-34.63-15.5-34.63-34.63c0-5.34,1.21-10.39,3.37-14.9c-4.38,6.22-6.96,13.79-6.96,21.98c0,21.11,17.11,38.22,38.22,38.22 s38.22-17.11,38.22-38.22C102.22,75.34,99.64,67.76,95.27,61.54z" fill="#4B8A99"/>
    <g>
      <path d="M32.44,47.8C15,65.23,15,93.49,32.44,110.93c17.43,17.43,45.69,17.43,63.13,0s17.43-45.69,0-63.13 C78.13,30.37,49.87,30.37,32.44,47.8z M87.99,107.14c-13.6,13.6-35.64,13.6-49.24,0c-13.6-13.6-13.6-35.64,0-49.24 s35.64-13.6,49.24,0C101.59,71.5,101.59,93.54,87.99,107.14z" fill="#BDBDBD"/>
      <g id="face_1_">
        <polygon points="37.94,20.79 45.69,9.04 51.69,15.9 " fill="#64B5F6"/>
        <polygon points="55.71,29.8 37.94,20.79 51.69,15.9 " fill="#81D4FA"/>
        <polygon points="64.5,18.63 51.69,15.9 55.71,29.8 " fill="#FFFFFF"/>
        <polygon points="91.07,20.79 83.32,9.04 77.32,15.9 " fill="#1E88E5"/>
        <polygon points="73.29,29.8 91.07,20.79 77.32,15.9 " fill="#B3E5FC"/>
        <polygon points="64.5,18.63 77.32,15.9 73.29,29.8 " fill="#FFFFFF"/>
        <polygon points="73.29,29.8 64.5,18.63 55.71,29.8 " fill="#B2EBF2"/>
        <polygon points="55.22,4 73.79,4 83.32,9.04 77.32,15.9 64.5,18.63 51.69,15.9 45.69,9.04 " fill="#B3E5FC"/>
        <polygon points="64.5,47.09 37.94,20.79 55.71,29.8 " fill="#1E88E5"/>
        <polygon points="64.5,47.09 91.07,20.79 73.29,29.8 " fill="#81D4FA"/>
        <polygon points="73.29,29.8 73.29,29.8 64.5,47.09 55.71,29.8 " fill="#E1F5FE"/>
      </g>
      <path d="M34.05,51.24c2.91,0.95,1.18,3.67,0.57,4.27c-2.39,2.36-3.03,3.89-4.52,6.36 c-1.55,2.56-3.36,2.69-4.1,1.16C23.98,58.84,30.65,50.12,34.05,51.24z" fill="#FFFFFF"/>
      <path d="M87.15,111.38c-5.16,3.14-7.01,1.88-5.69,1c4.97-3.32,11.64-7.94,15.78-20.76 c0.29-0.91,1.27-1.56,2.17-1.24c0.82,0.29,1.3,1.16,1.07,1.99C97.05,104.96,91.3,108.85,87.15,111.38z" fill="#FFFFFF"/>
    </g>
    <path d="M82.16,29.7l-13.4,13.14l-1.97-0.19l0.4-8.7c0-1.7-1.06-2.96-2.68-2.96c-1.63,0-2.6,1.26-2.6,2.96 l0.4,8.7l-1.97,0.19L46.93,29.7c0,0-3.49,1.51-0.14,4.83c3.79,3.75,13.1,12.64,13.1,12.64h9.3c0,0,9.32-8.89,13.1-12.64 C85.65,31.21,82.16,29.7,82.16,29.7z" fill="#BDBDBD"/>
    <path d="M82.13,29.65L71.21,40.44c-0.93,0.91-0.5,2.5,0.77,2.8c2.85,0.66,7.53,2.37,13.85,6.8 c4.26,2.99,6.68,2.46,7.6,0.76c1.16-2.14,0.23-4.89-1.84-6.53c-6.59-5.22-12.27-6.84-12.27-6.84l0,0c1.07-1.03,2.11-2.03,2.98-2.9 C85.65,31.21,82.13,29.65,82.13,29.65z" fill="#8E8E8E"/>
  </g>
</svg>

<svg viewBox="0 0 128 128" xmlns="http://www.w3.org/2000/svg">
  <defs/>
  <path d="M95.27,61.54 C97.43,66.05 98.64,71.11 98.64,76.44 C98.64,95.57 83.14,111.07 64.01,111.07 C44.88,111.07 29.38,95.57 29.38,76.44 C29.38,71.1 30.59,66.05 32.75,61.54 C28.37,67.76 25.79,75.33 25.79,83.52 C25.79,104.63 42.9,121.74 64.01,121.74 C85.12,121.74 102.23,104.63 102.23,83.52 C102.22,75.34 99.64,67.76 95.27,61.54 Z" fill="#4B8A99"/>
  <path d="M32.44,47.8 C15,65.23 15,93.49 32.44,110.93 C49.87,128.36 78.13,128.36 95.57,110.93 C113.01,93.5 113,65.24 95.57,47.8 C78.13,30.37 49.87,30.37 32.44,47.8 Z M87.99,107.14 C74.39,120.74 52.35,120.74 38.75,107.14 C25.15,93.54 25.15,71.5 38.75,57.9 C52.35,44.3 74.39,44.3 87.99,57.9 C101.59,71.5 101.59,93.54 87.99,107.14 Z" fill="#BDBDBD"/>
  <path d="M37.94,20.79 L45.69,9.04 L51.69,15.9 Z" fill="#64B5F6"/>
  <path d="M55.71,29.8 L37.94,20.79 L51.69,15.9 Z" fill="#81D4FA"/>
  <path d="M64.5,18.63 L51.69,15.9 L55.71,29.8 Z" fill="#FFFFFF"/>
  <path d="M91.07,20.79 L83.32,9.04 L77.32,15.9 Z" fill="#1E88E5"/>
  <path d="M73.29,29.8 L91.07,20.79 L77.32,15.9 Z" fill="#B3E5FC"/>
  <path d="M64.5,18.63 L77.32,15.9 L73.29,29.8 Z" fill="#FFFFFF"/>
  <path d="M73.29,29.8 L64.5,18.63 L55.71,29.8 Z" fill="#B2EBF2"/>
  <path d="M55.22,4 L73.79,4 L83.32,9.04 L77.32,15.9 L64.5,18.63 L51.69,15.9 L45.69,9.04 Z" fill="#B3E5FC"/>
  <path d="M64.5,47.09 L37.94,20.79 L55.71,29.8 Z" fill="#1E88E5"/>
  <path d="M64.5,47.09 L91.07,20.79 L73.29,29.8 Z" fill="#81D4FA"/>
  <path d="M73.29,29.8 L73.29,29.8 L64.5,47.09 L55.71,29.8 Z" fill="#E1F5FE"/>
  <path d="M34.05,51.24 C36.96,52.19 35.23,54.91 34.62,55.51 C32.23,57.87 31.59,59.4 30.1,61.87 C28.55,64.43 26.74,64.56 26,63.03 C23.98,58.84 30.65,50.12 34.05,51.24 Z" fill="#FFFFFF"/>
  <path d="M87.15,111.38 C81.99,114.52 80.14,113.26 81.46,112.38 C86.43,109.06 93.1,104.44 97.24,91.62 C97.53,90.71 98.51,90.06 99.41,90.38 C100.23,90.67 100.71,91.54 100.48,92.37 C97.05,104.96 91.3,108.85 87.15,111.38 Z" fill="#FFFFFF"/>
  <path d="M82.16,29.7 L68.76,42.84 L66.79,42.65 L67.19,33.95 C67.19,32.25 66.13,30.99 64.51,30.99 C62.88,30.99 61.91,32.25 61.91,33.95 L62.31,42.65 L60.34,42.84 L46.93,29.7 C46.93,29.7 43.44,31.21 46.79,34.53 C50.58,38.28 59.89,47.17 59.89,47.17 L69.19,47.17 C69.19,47.17 78.51,38.28 82.29,34.53 C85.65,31.21 82.16,29.7 82.16,29.7 Z" fill="#BDBDBD"/>
  <path d="M82.13,29.65 L71.21,40.44 C70.28,41.35 70.71,42.94 71.98,43.24 C74.83,43.9 79.51,45.61 85.83,50.04 C90.09,53.03 92.51,52.5 93.43,50.8 C94.59,48.66 93.66,45.91 91.59,44.27 C85,39.05 79.32,37.43 79.32,37.43 L79.32,37.43 C80.39,36.4 81.43,35.4 82.3,34.53 C85.65,31.21 82.13,29.65 82.13,29.65 Z" fill="#8E8E8E"/>
</svg>
